X: 10933
T: SWARD HOUSE -- Jig
R: jig
B: K\"ohler's Violin Repository, v.1, 1885 p.93 #3
F: http://www.archive.org/details/klersviolinrepos01edin
Z: 2012 John Chambers <jc:trillian.mit.edu>
M: 6/8
L: 1/8
K: G
uc |\
(B/c/)dB GBd | gfg dBG | cec BdB | ABG FED |\
(B/c/)dB GBd | gfg dBG | AFD Ddc | BcA G2 :|
|: ud |\
dBd ege | fag fed | gfg dBG | ABG AFD |\
EGc FAd | eaf gfe | dBG Ddc | BcA G2 :|

%%sep 2 1 500

